X:1
T:Saint Anne's Reel
R:reel
L:1/8
M:4/4
K:D
de|"D"f2fg fedB|A2F2 F2FA|"G"B2G2 G3B|"D"A2F2 F2de|
"D"f2fg fedB|A2F2 F3d|"G"BcdB "A"cdec|"D"d2fd d2:|
ag|"D"f2fg fedf|a2gf "G"g2ef|"A7"g2ec Aceg|"D"b2a2 a2 de|
f2fg fedf|a2"G"g2 g2 ef|"A7"g2ec Acec|"D"d2fd d2:|

